public/exam.svg

<?xml version="1.0" encoding="UTF-8" standalone="no"?>
<!-- Uploaded to: SVG Repo, www.svgrepo.com, Transformed by: SVG Repo Mixer Tools -->

<svg
   width="666.66669"
   height="666.66669"
   viewBox="0 0 40.000001 40.000001"
   fill="none"
   version="1.1"
   id="svg161"
   sodipodi:docname="exam.svg"
   inkscape:export-filename="exam2.svg"
   inkscape:export-xdpi="96"
   inkscape:export-ydpi="96"
   xmlns:inkscape="http://www.inkscape.org/namespaces/inkscape"
   xmlns:sodipodi="http://sodipodi.sourceforge.net/DTD/sodipodi-0.dtd"
   xmlns="http://www.w3.org/2000/svg"
   xmlns:svg="http://www.w3.org/2000/svg">
  <defs
     id="defs165" />
  <sodipodi:namedview
     id="namedview163"
     pagecolor="#ffffff"
     bordercolor="#000000"
     borderopacity="0.25"
     inkscape:showpageshadow="2"
     inkscape:pageopacity="0.0"
     inkscape:pagecheckerboard="0"
     inkscape:deskcolor="#d1d1d1"
     showgrid="false" />
  <g
     id="SVGRepo_iconCarrier"
     transform="translate(-4,-4)">
    <path
       fill-rule="evenodd"
       clip-rule="evenodd"
       d="m 8,42 h 24 c 1.1046,0 2,-0.8954 2,-2 V 8 C 34,6.89543 33.1046,6 32,6 H 8 C 6.89543,6 6,6.89543 6,8 v 32 c 0,1.1046 0.89543,2 2,2 z m 24,2 H 8 C 5.79086,44 4,42.2091 4,40 V 8 C 4,5.79086 5.79086,4 8,4 h 24 c 2.2091,0 4,1.79086 4,4 v 32 c 0,2.2091 -1.7909,4 -4,4 z"
       fill="#ea7070"
       id="path142" />
    <path
       fill-rule="evenodd"
       clip-rule="evenodd"
       d="m 18,13 c 0,-0.5523 0.4477,-1 1,-1 h 12 c 0.5523,0 1,0.4477 1,1 0,0.5523 -0.4477,1 -1,1 H 19 c -0.5523,0 -1,-0.4477 -1,-1 z"
       fill="#ea7070"
       id="path144" />
    <path
       fill-rule="evenodd"
       clip-rule="evenodd"
       d="m 18,17 c 0,-0.5523 0.4477,-1 1,-1 h 12 c 0.5523,0 1,0.4477 1,1 0,0.5523 -0.4477,1 -1,1 H 19 c -0.5523,0 -1,-0.4477 -1,-1 z"
       fill="#ea7070"
       id="path146" />
    <path
       fill-rule="evenodd"
       clip-rule="evenodd"
       d="m 18,25 c 0,-0.5523 0.4477,-1 1,-1 h 12 c 0.5523,0 1,0.4477 1,1 0,0.5523 -0.4477,1 -1,1 H 19 c -0.5523,0 -1,-0.4477 -1,-1 z"
       fill="#ea7070"
       id="path148" />
    <path
       fill-rule="evenodd"
       clip-rule="evenodd"
       d="m 18,29 c 0,-0.5523 0.4477,-1 1,-1 h 12 c 0.5523,0 1,0.4477 1,1 0,0.5523 -0.4477,1 -1,1 H 19 c -0.5523,0 -1,-0.4477 -1,-1 z"
       fill="#ea7070"
       id="path150" />
    <path
       fill-rule="evenodd"
       clip-rule="evenodd"
       d="m 10,26 v 3 h 3 V 26 Z M 9,24 h 5 c 0.5523,0 1,0.4477 1,1 v 5 c 0,0.5523 -0.4477,1 -1,1 H 9 C 8.44772,31 8,30.5523 8,30 v -5 c 0,-0.5523 0.44772,-1 1,-1 z"
       fill="#ea7070"
       id="path152" />
    <path
       fill-rule="evenodd"
       clip-rule="evenodd"
       d="m 15.7071,12.2929 c 0.3905,0.3905 0.3905,1.0237 0,1.4142 L 11,18.4142 8.29289,15.7071 c -0.39052,-0.3905 -0.39052,-1.0237 0,-1.4142 0.39053,-0.3905 1.02369,-0.3905 1.41422,0 L 11,15.5858 14.2929,12.2929 c 0.3905,-0.3905 1.0237,-0.3905 1.4142,0 z"
       fill="#ea7070"
       id="path154" />
    <path
       fill-rule="evenodd"
       clip-rule="evenodd"
       d="m 42,24 h -2 v 15.3333 l 1,1.3334 1,-1.3334 z m 2,16 -3,4 -3,-4 V 22 h 6 z"
       fill="#ea7070"
       id="path156" />
    <path
       fill-rule="evenodd"
       clip-rule="evenodd"
       d="m 42,17 h -2 v 2 h 2 z m -2,-2 h 2 c 1.1046,0 2,0.8954 2,2 v 4 h -6 v -4 c 0,-1.1046 0.8954,-2 2,-2 z"
       fill="#ea7070"
       id="path158" />
  </g>
</svg>

<!DOCTYPE svg PUBLIC "-//W3C//DTD SVG 1.1//EN" "http://www.w3.org/Graphics/SVG/1.1/DTD/svg11.dtd">
<!-- Uploaded to: SVG Repo, www.svgrepo.com, Transformed by: SVG Repo Mixer Tools -->
<svg width="800px" height="800px" viewBox="0 0 48 48" fill="none" xmlns="http://www.w3.org/2000/svg">
<g id="SVGRepo_bgCarrier" stroke-width="0"/>
<g id="SVGRepo_tracerCarrier" stroke-linecap="round" stroke-linejoin="round"/>
<g id="SVGRepo_iconCarrier"> <path fill-rule="evenodd" clip-rule="evenodd" d="M8 42H32C33.1046 42 34 41.1046 34 40V8C34 6.89543 33.1046 6 32 6H8C6.89543 6 6 6.89543 6 8V40C6 41.1046 6.89543 42 8 42ZM32 44H8C5.79086 44 4 42.2091 4 40V8C4 5.79086 5.79086 4 8 4H32C34.2091 4 36 5.79086 36 8V40C36 42.2091 34.2091 44 32 44Z" fill="#ea7070"/> <path fill-rule="evenodd" clip-rule="evenodd" d="M18 13C18 12.4477 18.4477 12 19 12H31C31.5523 12 32 12.4477 32 13C32 13.5523 31.5523 14 31 14H19C18.4477 14 18 13.5523 18 13Z" fill="#ea7070"/> <path fill-rule="evenodd" clip-rule="evenodd" d="M18 17C18 16.4477 18.4477 16 19 16H31C31.5523 16 32 16.4477 32 17C32 17.5523 31.5523 18 31 18H19C18.4477 18 18 17.5523 18 17Z" fill="#ea7070"/> <path fill-rule="evenodd" clip-rule="evenodd" d="M18 25C18 24.4477 18.4477 24 19 24H31C31.5523 24 32 24.4477 32 25C32 25.5523 31.5523 26 31 26H19C18.4477 26 18 25.5523 18 25Z" fill="#ea7070"/> <path fill-rule="evenodd" clip-rule="evenodd" d="M18 29C18 28.4477 18.4477 28 19 28H31C31.5523 28 32 28.4477 32 29C32 29.5523 31.5523 30 31 30H19C18.4477 30 18 29.5523 18 29Z" fill="#ea7070"/> <path fill-rule="evenodd" clip-rule="evenodd" d="M10 26V29H13V26H10ZM9 24H14C14.5523 24 15 24.4477 15 25V30C15 30.5523 14.5523 31 14 31H9C8.44772 31 8 30.5523 8 30V25C8 24.4477 8.44772 24 9 24Z" fill="#ea7070"/> <path fill-rule="evenodd" clip-rule="evenodd" d="M15.7071 12.2929C16.0976 12.6834 16.0976 13.3166 15.7071 13.7071L11 18.4142L8.29289 15.7071C7.90237 15.3166 7.90237 14.6834 8.29289 14.2929C8.68342 13.9024 9.31658 13.9024 9.70711 14.2929L11 15.5858L14.2929 12.2929C14.6834 11.9024 15.3166 11.9024 15.7071 12.2929Z" fill="#ea7070"/> <path fill-rule="evenodd" clip-rule="evenodd" d="M42 24H40V39.3333L41 40.6667L42 39.3333V24ZM44 40L41 44L38 40V22H44V40Z" fill="#ea7070"/> <path fill-rule="evenodd" clip-rule="evenodd" d="M42 17H40V19H42V17ZM40 15H42C43.1046 15 44 15.8954 44 17V21H38V17C38 15.8954 38.8954 15 40 15Z" fill="#ea7070"/> </g>
</svg>
